X: 36623
T: Shanahan's
R: hornpipe
M: 4/4
K: Gmajor
(3DEF|:GFGA (3BAG (3Bcd|gfga bgdB|A^GAB cBce|af (3gfe dBAB|
GFGA (3BAG (3Bcd|gfga bg d2|(3efgde BdAB|1 G2 GF G2 (3DEF:|2 G2 GF GABc||
|:dedc (3ABc gd|ecAG FAdA|Bdfa f3 d|(3efg dB AdBA|
GFGA (3BAG (3Bcd|gfga bg d2|(3efg de BdAB|1 G2 GF GABc:|2 G2 GF G2 (3DEF||

